X: 1183
M: 2/4
L: 1/16
K: D
d2AA A2f2 | d2AA A2f2 | e2c2 A2c2 | d2f2 a4 |\
d2AA A2f2 | d2AA A2f2 | e2c2 A2c2 | d6 H|]
g2gf e2e2 | f2fe d2d2 | e2e^d efge | d2f2 a4 |\
g2gf e2e2 | f2fe d2d2 | e2eg c2ce | "^da Capo"d6 |]

